resources/svg/contato.svg

<svg width="28" height="28" viewBox="0 0 28 28" fill="none" xmlns="http://www.w3.org/2000/svg">
<g clip-path="url(#clip0_185_916)">
<path d="M6.39459 2.32403C6.29128 2.19113 6.16088 2.08174 6.01205 2.00312C5.86321 1.9245 5.69935 1.87844 5.53135 1.86802C5.36335 1.85759 5.19505 1.88303 5.03764 1.94264C4.88022 2.00225 4.73729 2.09468 4.61834 2.21378L2.80884 4.02503C1.96359 4.87203 1.65209 6.07078 2.02134 7.12253C3.55389 11.4758 6.04686 15.4282 9.31534 18.6865C12.5737 21.955 16.5261 24.4479 20.8793 25.9805C21.9311 26.3498 23.1298 26.0383 23.9768 25.193L25.7863 23.3835C25.9054 23.2646 25.9979 23.1216 26.0575 22.9642C26.1171 22.8068 26.1425 22.6385 26.1321 22.4705C26.1217 22.3025 26.0756 22.1387 25.997 21.9898C25.9184 21.841 25.809 21.7106 25.6761 21.6073L21.6388 18.4678C21.4969 18.3577 21.3317 18.2812 21.1559 18.2442C20.9801 18.2073 20.7981 18.2107 20.6238 18.2543L16.7913 19.2115C16.2798 19.3394 15.7438 19.3326 15.2357 19.1918C14.7275 19.0511 14.2645 18.7811 13.8916 18.4083L9.59359 14.1085C9.22044 13.7358 8.95016 13.2729 8.80909 12.7647C8.66802 12.2565 8.66095 11.7205 8.78859 11.2088L9.74759 7.37628C9.79118 7.20197 9.79461 7.02004 9.75763 6.84421C9.72064 6.66839 9.64421 6.50325 9.53409 6.36128L6.39459 2.32403ZM3.29709 0.894278C3.60333 0.58794 3.97124 0.350256 4.37639 0.19701C4.78153 0.0437641 5.21464 -0.0215377 5.64696 0.00544078C6.07928 0.0324193 6.50091 0.151061 6.88386 0.353487C7.26681 0.555914 7.60231 0.837493 7.86809 1.17953L11.0076 5.21503C11.5833 5.95528 11.7863 6.91953 11.5588 7.82953L10.6016 11.662C10.5521 11.8605 10.5548 12.0685 10.6094 12.2656C10.6639 12.4628 10.7686 12.6425 10.9131 12.7873L15.2128 17.087C15.3578 17.2318 15.5378 17.3367 15.7353 17.3912C15.9328 17.4458 16.1411 17.4483 16.3398 17.3985L20.1706 16.4413C20.6197 16.329 21.0884 16.3203 21.5413 16.4158C21.9943 16.5113 22.4196 16.7085 22.7851 16.9925L26.8206 20.132C28.2713 21.2608 28.4043 23.4045 27.1058 24.7013L25.2963 26.5108C24.0013 27.8058 22.0658 28.3745 20.2616 27.7393C15.6437 26.1144 11.4508 23.4707 7.99409 20.0043C4.52785 16.5481 1.88416 12.3558 0.259092 7.73853C-0.374408 5.93603 0.194342 3.99878 1.48934 2.70378L3.29884 0.894278H3.29709Z" fill="black"/>
</g>
<defs>
<clipPath id="clip0_185_916">
<rect width="28" height="28" fill="white"/>
</clipPath>
</defs>
</svg>

<svg width="28" height="28" fill="none" xmlns="http://www.w3.org/2000/svg"><g clip-path="url(#a)"><path d="M6.394 2.324a1.186 1.186 0 0 0-1.776-.11l-1.81 1.811c-.845.847-1.156 2.046-.787 3.097a30.744 30.744 0 0 0 7.294 11.564A30.747 30.747 0 0 0 20.88 25.98c1.052.37 2.25.058 3.098-.787l1.81-1.81a1.188 1.188 0 0 0-.111-1.776l-4.037-3.14a1.187 1.187 0 0 0-1.015-.213l-3.833.957a3.053 3.053 0 0 1-2.9-.803l-4.298-4.3a3.054 3.054 0 0 1-.805-2.9l.96-3.832a1.186 1.186 0 0 0-.214-1.015l-3.14-4.037ZM3.297.894a3.054 3.054 0 0 1 4.571.285l3.14 4.036c.575.74.778 1.705.55 2.615l-.957 3.832a1.187 1.187 0 0 0 .312 1.125l4.3 4.3a1.187 1.187 0 0 0 1.127.311l3.83-.957a3.055 3.055 0 0 1 2.615.552l4.035 3.139a3.053 3.053 0 0 1 .286 4.57l-1.81 1.809c-1.295 1.295-3.23 1.864-5.034 1.228a32.608 32.608 0 0 1-12.268-7.735A32.61 32.61 0 0 1 .259 7.738c-.634-1.802-.065-3.74 1.23-5.034L3.3.894h-.002Z" fill="#000"/></g><defs><clipPath id="a"><path fill="#fff" d="M0 0h28v28H0z"/></clipPath></defs></svg>
